X:1
T:Jovens sereias
T:Jovens sereias
T:Choreographica
T:Galáxia Sonora de Coimbra 2020 (A.Caetano)
Z:Galáxia Sonora de Coimbra 2020 (A.Caetano)
%%score 1 2
L:1/8
Q:1/4=110
M:3/4
K:F
V:1 treble nm="Voz"
V:2 bass nm="Piano"
V:1
"^Allegretto" A2 ^G2 A2 | d2 c3 A | (c6 | B2) z4 | B2 A2 B2 | e2 d3 B | (d6 | c2) z4 | d2 d2 d2 | %9
w: O rou- xi-|nol quan- do|can-|ta|à noi- te|no sal- guei-|ral-|al|No seu re-|
 d2 e2 f2 | (f4 c2-) | c2 B2 A2 | d4 G2 | B4 E2 | (G6 | F2) z4 || C2 E2 G2 | B2 c3 B | c4- c2 | %19
w: que- bro só|di- iz|_ Co- im-|bra não|tem ri-|va|al.|So- mos as|fi- lhas do|ma- ar|
 B2 d3 B | d4 d2 | B2 d3 B | (d6 | c4) z2 | C2 E2 G2 | B2 c2 B2 | A4 f2 | d4 B2 | A4 A2 | G4 G2 | %30
w: jo- vens se-|rei- as,|jo- vens se-|rei-|as|a nos- sa|vi- da é can-|tar e|nos teus|bra- ços|em ca-|
 F4 F2- | F2 z2 z2 |] %32
w: dei- as.|_|
V:2
 [F,,F,]2 [A,CF]2 [A,CF]2 | [F,,F,]2 [A,CF]2 [A,CF]2 | [G,,G,]2 [B,CE]2 [B,CE]2 | %3
 [C,,C,]2 [B,CE]2 [B,CE]2 | [E,,E,]2 [B,CE]2 [B,CE]2 | [C,,C,]2 [B,CE]2 [B,CE]2 | %6
 [F,,F,]2 [A,CF]2 [A,CF]2 | [F,,F,]2 [A,CF]2 [A,CF]2 | [B,,,B,,]2 [A,DF]2 [A,DF]2 | %9
 [=B,,,D,]2 [F,^G,=B,]2 [F,G,B,]2 | C,2 [F,A,C]2 [F,A,C]2 | A,,2 [F,A,C]2 [F,A,C]2 | %12
 B,,2 [G,B,D]2 [G,B,D]2 | C,2 [G,B,C]2 [G,B,C]2 | z2 [D,,D,]2 [E,,E,]2 | [F,,F,A,]2 z2 z2 || %16
 E,2 [G,B,C]2 [G,B,C]2 | C,2 [G,B,C]2 [G,B,C]2 | F,2 [A,C]2 [A,C]2 | G,2 [B,C]2 [B,C]2 | %20
 E,2 [B,C]2 [B,C]2 | G,2 [B,C]2 [B,C]2 | F,2 [A,C]2 [A,C]2 | F,2 [A,C]2 [A,C]2 | %24
 E,2 [G,B,C]2 [G,B,C]2 | C,2 [G,B,C]2 [G,B,C]2 | D,2 [F,A,]2 [F,A,]2 | B,,2 [D,G,B,]2 [D,G,B,]2 | %28
 C,2 [F,A,C]2 [F,A,C]2 | C,2 [E,G,C]2 [E,G,B,]2 | [F,A,]2 [F,A,C]2 [F,A,C]2 | [F,A,C]2 z2 z2 |] %32

